img/manaSymbols/neon/neon3.svg

<?xml version="1.0" encoding="UTF-8" standalone="no"?>
<!DOCTYPE svg PUBLIC "-//W3C//DTD SVG 1.1//EN" "http://www.w3.org/Graphics/SVG/1.1/DTD/svg11.dtd">
<svg width="714" height="714" viewBox="0 0 714 714" version="1.1" xmlns="http://www.w3.org/2000/svg" xmlns:xlink="http://www.w3.org/1999/xlink" xml:space="preserve" xmlns:serif="http://www.serif.com/" style="fill-rule:evenodd;clip-rule:evenodd;stroke-linejoin:round;stroke-miterlimit:2;">
    <g transform="matrix(1,0,0,1,57,57)">
        <circle cx="300" cy="300" r="300"/>
    </g>
    <g transform="matrix(1,0,0,1,57,57)">
        <path d="M300,-57C102.966,-57 -57,102.966 -57,300C-57,497.034 102.966,657 300,657C497.034,657 657,497.034 657,300C657,102.966 497.034,-57 300,-57ZM300,0C465.575,0 600,134.425 600,300C600,465.575 465.575,600 300,600C134.425,600 0,465.575 0,300C0,134.425 134.425,0 300,0Z" style="fill:white;"/>
    </g>
    <g transform="matrix(1,0,0,1,57,57)">
        <path d="M474,358C473,484 344,533 273,532C194,531 157,497 157,497L180,466C180,466 218,491 272,491C303,491 397,462 397,367C397,316 351,297 328,296C308,296 286,307 255,325L238,288C348,221 365,201 365,170C365,141 339,122 316,122C293,122 260,128 199,194L167,168C246,57 316,62 337,63C384,65 440,90 441,150C441,174 433,202 379,243C425,248 475,289 474,358Z" style="fill:white;fill-rule:nonzero;"/>
    </g>
</svg>

﻿<?xml version="1.0" encoding="utf-8"?>
<svg width="714" height="714" viewBox="0 0 714 714" version="1.1" xmlns="http://www.w3.org/2000/svg" xml:space="preserve" style="fill-rule: evenodd; clip-rule: evenodd; stroke-linejoin: round; stroke-miterlimit: 2;" preserveAspectRatio="xMidYMid meet" zoomAndPan="magnify" contentScriptType="application/ecmascript" contentStyleType="text/css">
  <circle cx="300" cy="300" r="300" transform="matrix(1,0,0,1,57,57)" />
  <path d="M300-57C102.966-57-57 102.966-57 300s159.966 357 357 357 357-159.966 357-357S497.034-57 300-57zm0 57c165.575 0 300 134.425 300 300S465.575 600 300 600 0 465.575 0 300 134.425 0 300 0z" style="fill: white;" transform="matrix(1,0,0,1,57,57)" />
  <path d="M474 358c-1 126-130 175-201 174-79-1-116-35-116-35l23-31s38 25 92 25c31 0 125-29 125-124 0-51-46-70-69-71-20 0-42 11-73 29l-17-37c110-67 127-87 127-118 0-29-26-48-49-48s-56 6-117 72l-32-26C246 57 316 62 337 63c47 2 103 27 104 87 0 24-8 52-62 93 46 5 96 46 95 115z" style="fill: white; fill-rule: nonzero;" transform="matrix(1,0,0,1,57,57)" />
</svg>
